X:1
T:Glengarry [4]
T:Reel Jacques-Cartier
T:Jacques Cartier
N:From the playing of Joseph Allard (1873-1947, Montreal, Quebec)
M:C|
L:1/8
R:Reel
D:Victor 216567 (78 RPM), Joseph Allard (1930)
D: http://www.collectionscanada.ca/obj/m2/f7/16441.mp3
Z:Transcribed by Andrew Kuntz
K:Bb
FE|DFBF dBFB|EGBG ecAc|Bdfd gfec|BdcB AcBF|
DFBF dBFB|EGBG ecAc|Bdfd gfec|Bbfd B2:|
|:fe|dfBd cecA|FAcA  BcdB|FBdB edcB|Af=eg f2fe|
dfBd cecA|FAcA  BcdB|FBdB ecAc|Bbfd B2:|]

